website/assets/timelines/na.svg

<svg height="512" viewBox="0 0 512 512" width="512" xmlns="http://www.w3.org/2000/svg"><path d="m86 82.666992-76 55 7 21 16.813 14.914002 60.187-21.914002 26 16 4.011002 42.658997-28.011002 60.341003 22 109 10 7 11-7 17 35 36 30h26.164993l63.300003 58 37.537995-27-31-14-5-21-27-5.010986 8.746002-34.813996-43.269989 9.006989-10.479004-13.182007 10.475998-34.593994 58.524002-15.406006 13 19 19-4 7-26.494995 33-26.505005 13-27 80-40 3.407013-23.282989 16.61499-8.058014 17.977997 18.341003 20.955994-18.341003-23.955994-62.658997-31 2-7-11-29 3-34 46s-45-37-41-36 8-13 8-13l57.308014-19.138977 8.076996-20.578003-14.38501-13.28302-39.582001 13.28302-175.417999-12.950012z" fill="#fff"/><path d="m511.86499 203.447021c-.380981-4.328002-.537994-5.78302-1.289001-7.577026-1.852661-4.409973-3.694977-8.823303-5.526978-13.23999-3.800018-9.143005-7.736999-18.600006-11.770019-27.872986-6.084992-14-20.708985-20.307007-34.772003-15-.268982.099976-.524994.199982-.768982.286987-.174012-.320007-.358002-.665008-.556-1.035003-6.239014-11.739014-17.464997-9.82602-22.26001-9.006989-1.451233.279816-2.918365.469849-4.393005.56897-1.549988.109253-3.105164.124603-4.656983.04602-11.333008-.923004-20.664001 3.716004-26.950012 13.421997-2.42688 3.59549-5.265076 6.895478-8.457001 9.833008-4.223938 3.957093-7.993255 8.373078-11.238006 13.165985-.64267.973999-1.284333 1.94867-1.924988 2.924012-2.413666-4.802124-6.43045-8.609162-11.355011-10.761994-3.048004-1.38501-6.071991-2.540008-9-3.656006-1.167999-.445984-2.337006-.892028-3.5-1.350006-1.091522-.358917-2.110687-.908783-3.009979-1.623993-.035797-.231567-.051514-.465759-.046997-.700012-.003266-.215393.013458-.430664.049987-.643005.952851-.745606 2.044312-1.294556 3.210999-1.61499 3.553009-1.239991 7.22699-2.458985 10.781006-3.638978 8.372986-2.779022 17.029999-5.653015 25.467987-9.218017 8.800018-3.716004 16.515015-9.045014 22.907013-13.768005 8.669983-6.404999 11.485992-17.569001 7.009003-27.781983-2.278016-5.205017-8.31601-13.949036-23.125-14.012024h-.200013c-9.718994 0-18.317993 2.955994-25.908996 5.56601-2.600006.894012-5.052002 1.736999-7.493012 2.455993l-.349975.100006c-1.808747.632386-3.68512 1.051545-5.591004 1.248993-7.207-.16098-14.595001-.492004-21.74002-.811981-5.056977-.226013-10.286988-.460998-15.462983-.636017-.125 0-.248993-.006012-.373993-.006012-5.944915.000275-10.791504 4.767395-10.890045 10.711487-.098511 5.944092 4.587403 10.869232 10.529022 11.066528 5.055024.169983 10.225007.399994 15.223999.625 7.264008.325989 14.777009.662995 22.230011.828003 4.166138-.058441 8.29657-.778076 12.237-2.132019l.341003-.099975c2.908997-.856018 5.712006-1.821015 8.423005-2.752991 6.554992-2.253021 12.746978-4.382019 18.826995-4.382019h.110993c2.850006.011993 3.114013.613007 3.272003.973999.196411.386292.295624.814697.289001 1.247986-.083679.102508-.181701.192444-.291015.267029-5.363983 3.962982-11.75 8.394989-18.442993 11.222992-7.641999 3.230011-15.515992 5.842987-23.85199 8.609985-3.630005 1.200012-7.38501 2.451019-11.093018 3.746002-14.720977 5.13501-17.842987 15.200012-17.868988 22.747009-.037994 10.612977 5.627014 18.237977 16.842011 22.666993 1.238006.489013 2.484985.965027 3.72998 1.440002 2.735016 1.044006 5.317017 2.028992 7.75 3.13501.81601.369995 1.188019.539978.779999 2.333008-.599976 2.617981-2.052002 11.568969 4.222015 16.846008 3.580384 2.945007 8.251984 4.21283 12.829987 3.481995 5.165863-.700806 9.805145-3.524964 12.800018-7.792023 2.390992-3.539002 4.755982-7.139984 7.043-10.621002l2.799987-4.252014c2.421723-3.528718 5.231629-6.774659 8.377015-9.676972 4.315643-4.034393 8.147674-8.556732 11.419006-13.476013 1.915985-2.957977 3.599975-3.822998 6.899994-3.551972 2.492981.163819 4.994018.163819 7.486999 0 2.349121-.135559 4.687195-.420776 7-.854003.164978-.028016.339997-.058014.519989-.087037 2.306 4.173035 5.153015 8.411011 10.235993 10.407013 6.109009 2.399994 11.817016.243012 16.852997-1.655975 3.095001-1.170013 5.686004.039002 7.106018 3.306976 3.963989 9.118988 7.863006 18.493012 11.635009 27.558014 1.666657 4.005982 3.335663 8.005982 5.006989 12 .053009.5.123993 1.25.221985 2.354004.311371 2.700745-.392182 5.420868-1.973999 7.631989-.78125 1.050964-1.771729 1.928741-2.908997 2.578003-.81195-.789338-1.529114-1.670624-2.136993-2.626007-5.974091-8.9469-16.825745-13.311585-27.330994-10.992981l-.265015.05899c-13.132598 2.918366-21.844451 15.405243-20.049987 28.738007.087982.684997.12799 1.25.141998 1.704986-23.571991 8.526001-44.227997 20.5-61.423004 31.179993-11.033997 6.85202-19.010987 15.343994-24.382996 25.96402-3.597381 7.396728-9.46347 13.450958-16.743011 17.279998-15.711975 8.358979-26.031983 21.450989-30.673004 38.910981-.599976 2.236023-1.255982 4.555023-1.973999 6.917022-6.330994-11.975006-14.5-16.269012-28.5-15.226013l-1.422974.105988c-9.07901.675018-18.466019 1.373016-27.782013 2.594024-15.192993 1.989991-26.716003 10.613984-33.322006 24.940979-2.811997 6.100007-5.159989 12.279999-7.138993 17.593018-4.325164 10.976807-1.218872 23.488678 7.737992 31.167999 8.793014 7.690003 21.355011 8.949005 32 3.209992 2.800003-1.510987 5.549011-3.091004 8.234009-4.665009-1.048005 2.200012-2.113999 4.457001-3.121994 6.787995-2.40001 5.54602-2.346009 11.178009.15599 15.860015 2.511002 4.700013 7.194 7.891999 13.185013 8.988007 7.773987 1.423981 10.309998 3.270996 10.953979 3.867004-.03836.239838-.094512.476471-.167999.707978-1.451996 4.782013-2.466003 13.900024 7.059021 21.253021 5.27298 4.071991 11.354981 8.221985 18.582978 10.871979-2.811982 1.925018-5.448975 3.739013-7.31598 5.242004-2.835021 2.282013-3.61502 2.27301-6.417999-.106995-4.574005-3.881988-9.151367-7.759674-13.732025-11.632995-12.019989-10.165009-24.441986-20.681-36.541992-31.130005-8.099991-7-16.826996-9.881012-26.676987-8.807007-3.144012.338013-6.154007-.539978-9.469009-2.777984-2.987992-2.016022-5.977326-4.029694-8.968003-6.041016-6.395996-4.303986-12.782989-8.620667-19.160995-12.949982-4.403824-2.729889-7.066238-7.557861-7.024994-12.739013-.017548-3.923462-.954605-7.788208-2.736008-11.283997-2.875991-5.264008-5.906005-10.390015-9.113998-15.816986l-.240997-.406006c-2.286805-3.862244-6.289185-6.391357-10.75911-6.798737-4.469925-.407379-8.863571 1.356537-11.81089 4.74173-8.354897-23.691223-14.737618-48.032409-19.083-72.774994-2.743714-14.397918-.072815-29.30191 7.5-41.851013 11.799995-20.304993 17.832992-43.059997 17.923996-67.63501.143554-12.369781-4.808777-24.253723-13.694-32.860992-8.271035-7.881622-19.456826-11.952667-30.859002-11.230988-4.333397.349793-8.597877 1.295349-12.672996 2.809998-5.833 2.024994-11.700005 4.154999-17.364002 6.21698-4.945 1.800018-10.057 3.655029-15.076001 5.416016-6.159999 2.158996-15.168998-.580994-19.281997-5.869996-4.113001-5.289001-3.236-12.200012 2.077999-16.442993 2.314369-1.856994 4.619068-3.726043 6.914001-5.606994 8.218998-6.710022 15.982998-13.048035 24.379998-18.19101 23.767002-14.558014 42.783001-20.736999 61.716999-20.085998 2.573745.074096 108.261528 7.716919 136.579002 8.860992 10.216217.41275 10.879669-5.588989 11-9 .137238-3.88974-.843842-9.738129-10-11-21.455704-2.95694-134.717049-10.543518-136.810997-10.630981-30.051003-1.069031-55.268005 11.884979-73.871002 23.280975-9.654 5.912994-18.360001 13.019989-26.778 19.891998-2.244001 1.832001-4.487001 3.664002-6.742001 5.468018-6.972528 5.451843-11.488669 13.454498-12.551523 22.241394-1.062855 8.786865 1.414973 17.635498 6.886523 24.59259 9.885 12.705994 28.661998 18.314026 43.681999 13.046997 5.136001-1.799988 10.308002-3.680969 15.309002-5.5 5.599998-2.032989 11.383003-4.136993 17.068-6.110992 2.188637-.83078 4.473343-1.382111 6.799996-1.640991 5.395645-.347565 10.691322 1.573669 14.609001 5.299987 4.556503 4.448059 7.052055 10.594513 6.886002 16.959992-.075997 20.708008-5.113999 39.808014-14.973 56.770019-10.13987 17.013123-13.734001 37.137726-10.110001 56.609009 4.877739 27.819885 12.228562 55.148956 21.965004 81.661987 4.787995 12.92099 15.081993 13.739991 19.277001 13.484009 3.219627-.149231 6.345466-1.131225 9.071998-2.850006.996003 1.736664 1.964997 3.462647 2.906998 5.178009.127335.616669.194321 1.244293.199997 1.873993.234009 12.091553 6.421219 23.28833 16.533997 29.92099 6.404678 4.363983 12.825668 8.703339 19.263 13.018005 2.984009 2.007996 5.966339 4.016999 8.947006 6.027008 7.610001 5.135987 15.686005 7.277985 24.009995 6.376984 3.700012-.399994 6.625.649994 10.080002 3.634003 12.177002 10.520996 24.647003 21.074005 36.699997 31.278992 4.572006 3.866668 9.141677 7.73767 13.708999 11.613006 5.471008 4.643005 11.382996 6.968018 17.31601 6.968018 5.725982 0 11.471985-2.165009 16.858001-6.5 1.286011-1.035004 3.83899-2.784027 6.309998-4.473999 4.519989-3.094025 9.200012-6.294007 12.028992-9.024018 3.527008-3.399994 7.069-9.640991 5.442993-16.052002-1.763977-6.949005-9.192993-11.442993-15.064972-11.622985-7-.213013-12.882019-3.507019-19.419006-8.453003 1.50064-5.616974.654968-11.6026-2.343018-16.584015-3.799988-6.233002-10.742981-10.552002-21.151001-13.130982.45401-.964019.92102-1.941009 1.400024-2.938995.750977-1.572022 1.5-3.14502 2.230988-4.725006 3.882996-8.411011 2.339996-17.035004-4.123016-23.067993-6.799988-6.350006-15.757981-7.256012-23.962983-2.421021l-2.07901 1.226013c-3.719986 2.199982-7.232986 4.272003-10.832992 6.21399-2.682999 1.445007-5.352997 1.290008-7.324005-.436005-2.108185-1.737701-2.790467-4.672546-1.664994-7.161987 1.841996-4.942994 4.015992-10.670014 6.509995-16.078003 3.455002-7.493988 8.656998-11.45401 16.369003-12.46399 8.712006-1.141998 17.790009-1.817016 26.569-2.470001l1.424988-.106018c5.665009-.423004 5.666016-.421997 8.21402 4.865021 3.912994 8.109985 11.076996 12.543976 19.671997 12.213989 8.823517-.422851 16.44101-6.317779 19.063995-14.752991 1.060456-3.358703 2.045044-6.740905 2.953003-10.144012 3.065003-11.531006 9.558991-19.799988 19.852997-25.276001 11.238343-5.944824 20.317627-15.279877 25.947998-26.678986 3.516999-6.951019 8.894013-12.606018 16.436005-17.290008 16.806-10.433991 37.040008-22.162018 59.679993-30.031006 3.328003-1.156006 14.007019-6.315979 11.716003-24.135986-.311645-2.168152 1.088196-4.214051 3.222015-4.709015l.264985-.058991c1.691711-.37561 3.440216.328125 4.399993 1.770996 11.141022 16.815979 24.319001 12.690003 28.092011 11.026978 4.927399-2.156128 9.217956-5.542419 12.459991-9.833984 4.862732-6.519104 7.118805-14.617676 6.326996-22.711976z"/><path d="m296.647003 95.580017c0 5.522827-4.477142 9.99997-10 9.99997-5.522857 0-10-4.477143-10-9.99997 0-5.522858 4.477143-10 10-10 5.522858 0 10 4.477142 10 10z"/></svg>

<?xml version="1.0" encoding="UTF-8"?>
<!-- Generated by Pixelmator Pro 3.2.3 -->
<svg width="512" height="512" viewBox="0 0 512 512" xmlns="http://www.w3.org/2000/svg" xmlns:xlink="http://www.w3.org/1999/xlink">
    <g id="Associer">
        <path id="Trac" fill="#ffffff" stroke="none" d="M 86 82.666992 L 10 137.666992 L 17 158.666992 L 33.813 173.580994 L 94 151.666992 L 120 167.666992 L 124.011002 210.325989 L 96 270.666992 L 118 379.666992 L 128 386.666992 L 139 379.666992 L 156 414.666992 L 192 444.666992 L 218.164993 444.666992 L 281.464996 502.666992 L 319.002991 475.666992 L 288.002991 461.666992 L 283.002991 440.666992 L 256.002991 435.656006 L 264.748993 400.84201 L 221.479004 409.848999 L 211 396.666992 L 221.475998 362.072998 L 280 346.666992 L 293 365.666992 L 312 361.666992 L 319 335.171997 L 352 308.666992 L 365 281.666992 L 445 241.666992 L 448.407013 218.384003 L 465.022003 210.325989 L 483 228.666992 L 503.955994 210.325989 L 480 147.666992 L 449 149.666992 L 442 138.666992 L 413 141.666992 L 379 187.666992 C 379 187.666992 334 150.666992 338 151.666992 C 342 152.666992 346 138.666992 346 138.666992 L 403.308014 119.528015 L 411.38501 98.950012 L 397 85.666992 L 357.417999 98.950012 L 182 86 Z"/>
        <path id="path1" fill="#000000" stroke="none" d="M 511.86499 203.447021 C 511.484009 199.119019 511.326996 197.664001 510.575989 195.869995 C 508.723328 191.460022 506.881012 187.046692 505.049011 182.630005 C 501.248993 173.487 497.312012 164.029999 493.278992 154.757019 C 487.194 140.757019 472.570007 134.450012 458.506989 139.757019 C 458.238007 139.856995 457.981995 139.957001 457.738007 140.044006 C 457.563995 139.723999 457.380005 139.378998 457.182007 139.009003 C 450.942993 127.269989 439.71701 129.182983 434.921997 130.002014 C 433.470764 130.28183 432.003632 130.471863 430.528992 130.570984 C 428.979004 130.680237 427.423828 130.695587 425.872009 130.617004 C 414.539001 129.694 405.208008 134.333008 398.921997 144.039001 C 396.495117 147.634491 393.656921 150.934479 390.464996 153.872009 C 386.241058 157.829102 382.471741 162.245087 379.22699 167.037994 C 378.58432 168.011993 377.942657 168.986664 377.302002 169.962006 C 374.888336 165.159882 370.871552 161.352844 365.946991 159.200012 C 362.898987 157.815002 359.875 156.660004 356.946991 155.544006 C 355.778992 155.098022 354.609985 154.651978 353.446991 154.194 C 352.355469 153.835083 351.336304 153.285217 350.437012 152.570007 C 350.401215 152.33844 350.385498 152.104248 350.390015 151.869995 C 350.386749 151.654602 350.403473 151.439331 350.440002 151.22699 C 351.392853 150.481384 352.484314 149.932434 353.651001 149.612 C 357.20401 148.372009 360.877991 147.153015 364.432007 145.973022 C 372.804993 143.194 381.462006 140.320007 389.899994 136.755005 C 398.700012 133.039001 406.415009 127.709991 412.807007 122.987 C 421.47699 116.582001 424.292999 105.417999 419.81601 95.205017 C 417.537994 90 411.5 81.255981 396.69101 81.192993 L 396.490997 81.192993 C 386.772003 81.192993 378.173004 84.148987 370.582001 86.759003 C 367.981995 87.653015 365.529999 88.496002 363.088989 89.214996 L 362.739014 89.315002 C 360.930267 89.947388 359.053894 90.366547 357.14801 90.563995 C 349.94101 90.403015 342.553009 90.071991 335.40799 89.752014 C 330.351013 89.526001 325.121002 89.291016 319.945007 89.115997 C 319.820007 89.115997 319.696014 89.109985 319.571014 89.109985 C 313.626099 89.11026 308.77951 93.87738 308.680969 99.821472 C 308.582458 105.765564 313.268372 110.690704 319.209991 110.888 C 324.265015 111.057983 329.434998 111.287994 334.43399 111.513 C 341.697998 111.838989 349.210999 112.175995 356.664001 112.341003 C 360.830139 112.282562 364.960571 111.562927 368.901001 110.208984 L 369.242004 110.109009 C 372.151001 109.252991 374.95401 108.287994 377.665009 107.356018 C 384.220001 105.102997 390.411987 102.973999 396.492004 102.973999 L 396.602997 102.973999 C 399.453003 102.985992 399.71701 103.587006 399.875 103.947998 C 400.071411 104.33429 400.170624 104.762695 400.164001 105.195984 C 400.080322 105.298492 399.9823 105.388428 399.872986 105.463013 C 394.509003 109.425995 388.122986 113.858002 381.429993 116.686005 C 373.787994 119.916016 365.914001 122.528992 357.578003 125.29599 C 353.947998 126.496002 350.192993 127.747009 346.484985 129.041992 C 331.764008 134.177002 328.641998 144.242004 328.615997 151.789001 C 328.578003 162.401978 334.243011 170.026978 345.458008 174.455994 C 346.696014 174.945007 347.942993 175.421021 349.187988 175.895996 C 351.923004 176.940002 354.505005 177.924988 356.937988 179.031006 C 357.753998 179.401001 358.126007 179.570984 357.717987 181.364014 C 357.118011 183.981995 355.665985 192.932983 361.940002 198.210022 C 365.520386 201.155029 370.191986 202.422852 374.769989 201.692017 C 379.935852 200.991211 384.575134 198.167053 387.570007 193.899994 C 389.960999 190.360992 392.325989 186.76001 394.613007 183.278992 L 397.412994 179.026978 C 399.834717 175.49826 402.644623 172.252319 405.790009 169.350006 C 410.105652 165.315613 413.937683 160.793274 417.209015 155.873993 C 419.125 152.916016 420.80899 152.050995 424.109009 152.322021 C 426.60199 152.48584 429.103027 152.48584 431.596008 152.322021 C 433.945129 152.186462 436.283203 151.901245 438.596008 151.468018 C 438.760986 151.440002 438.936005 151.410004 439.115997 151.380981 C 441.421997 155.554016 444.269012 159.791992 449.35199 161.787994 C 455.460999 164.187988 461.169006 162.031006 466.204987 160.132019 C 469.299988 158.962006 471.890991 160.171021 473.311005 163.438995 C 477.274994 172.557983 481.174011 181.932007 484.946014 190.997009 C 486.612671 195.002991 488.281677 199.002991 489.953003 202.997009 C 490.006012 203.497009 490.076996 204.247009 490.174988 205.351013 C 490.486359 208.051758 489.782806 210.771881 488.200989 212.983002 C 487.419739 214.033966 486.42926 214.911743 485.291992 215.561005 C 484.480042 214.771667 483.762878 213.890381 483.154999 212.934998 C 477.180908 203.988098 466.329254 199.623413 455.824005 201.942017 L 455.55899 202.001007 C 442.426392 204.919373 433.714539 217.40625 435.509003 230.739014 C 435.596985 231.424011 435.636993 231.989014 435.651001 232.444 C 412.07901 240.970001 391.423004 252.944 374.227997 263.623993 C 363.194 270.476013 355.21701 278.967987 349.845001 289.588013 C 346.24762 296.984741 340.381531 303.038971 333.10199 306.868011 C 317.390015 315.22699 307.070007 328.319 302.428986 345.778992 C 301.82901 348.015015 301.173004 350.334015 300.454987 352.696014 C 294.123993 340.721008 285.954987 336.427002 271.954987 337.470001 L 270.532013 337.575989 C 261.453003 338.251007 252.065994 338.949005 242.75 340.170013 C 227.557007 342.160004 216.033997 350.783997 209.427994 365.110992 C 206.615997 371.210999 204.268005 377.390991 202.289001 382.70401 C 197.963837 393.680817 201.070129 406.192688 210.026993 413.872009 C 218.820007 421.562012 231.382004 422.821014 242.026993 417.082001 C 244.826996 415.571014 247.576004 413.990997 250.261002 412.416992 C 249.212997 414.617004 248.147003 416.873993 247.139008 419.204987 C 244.738998 424.751007 244.792999 430.382996 247.294998 435.065002 C 249.806 439.765015 254.488998 442.957001 260.480011 444.053009 C 268.253998 445.47699 270.790009 447.324005 271.43399 447.920013 C 271.39563 448.159851 271.339478 448.396484 271.265991 448.627991 C 269.813995 453.410004 268.799988 462.528015 278.325012 469.881012 C 283.597992 473.953003 289.679993 478.102997 296.90799 480.752991 C 294.096008 482.678009 291.459015 484.492004 289.59201 485.994995 C 286.756989 488.277008 285.97699 488.268005 283.174011 485.888 C 278.600006 482.006012 274.022644 478.128326 269.441986 474.255005 C 257.421997 464.089996 245 453.574005 232.899994 443.125 C 224.800003 436.125 216.072998 433.243988 206.223007 434.317993 C 203.078995 434.656006 200.069 433.778015 196.753998 431.540009 C 193.766006 429.523987 190.776672 427.510315 187.785995 425.498993 C 181.389999 421.195007 175.003006 416.878326 168.625 412.549011 C 164.221176 409.819122 161.558762 404.99115 161.600006 399.809998 C 161.582458 395.886536 160.645401 392.02179 158.863998 388.526001 C 155.988007 383.261993 152.957993 378.135986 149.75 372.709015 L 149.509003 372.303009 C 147.222198 368.440765 143.219818 365.911652 138.749893 365.504272 C 134.279968 365.096893 129.886322 366.860809 126.939003 370.246002 C 118.584106 346.554779 112.201385 322.213593 107.856003 297.471008 C 105.112289 283.07309 107.783188 268.169098 115.356003 255.619995 C 127.155998 235.315002 133.188995 212.559998 133.279999 187.984985 C 133.423553 175.615204 128.471222 163.731262 119.585999 155.123993 C 111.314964 147.242371 100.129173 143.171326 88.726997 143.893005 C 84.3936 144.242798 80.12912 145.188354 76.054001 146.703003 C 70.221001 148.727997 64.353996 150.858002 58.689999 152.919983 C 53.744999 154.720001 48.632999 156.575012 43.613998 158.335999 C 37.453999 160.494995 28.445 157.755005 24.332001 152.466003 C 20.219 147.177002 21.096001 140.265991 26.41 136.02301 C 28.724369 134.166016 31.029068 132.296967 33.324001 130.416016 C 41.542999 123.705994 49.306999 117.367981 57.703999 112.225006 C 81.471001 97.666992 100.487 91.488007 119.420998 92.139008 C 121.994743 92.213104 227.682526 99.855927 256 101 C 266.216217 101.41275 266.879669 95.411011 267 92 C 267.137238 88.11026 266.156158 82.261871 257 81 C 235.544296 78.04306 122.282951 70.456482 120.189003 70.369019 C 90.138 69.299988 64.920998 82.253998 46.318001 93.649994 C 36.664001 99.562988 27.958 106.669983 19.540001 113.541992 C 17.296 115.373993 15.053 117.205994 12.798 119.01001 C 5.825472 124.461853 1.309331 132.464508 0.246477 141.251404 C -0.816378 150.038269 1.66145 158.886902 7.133 165.843994 C 17.018 178.549988 35.794998 184.15802 50.814999 178.890991 C 55.951 177.091003 61.123001 175.210022 66.124001 173.390991 C 71.723999 171.358002 77.507004 169.253998 83.192001 167.279999 C 85.380638 166.449219 87.665344 165.897888 89.991997 165.639008 C 95.387642 165.291443 100.683319 167.212677 104.600998 170.938995 C 109.157501 175.387054 111.653053 181.533508 111.487 187.898987 C 111.411003 208.606995 106.373001 227.707001 96.514 244.669006 C 86.37413 261.682129 82.779999 281.806732 86.403999 301.278015 C 91.281738 329.0979 98.632561 356.426971 108.369003 382.940002 C 113.156998 395.860992 123.450996 396.679993 127.646004 396.424011 C 130.865631 396.27478 133.99147 395.292786 136.718002 393.574005 C 137.714005 395.310669 138.682999 397.036652 139.625 398.752014 C 139.752335 399.368683 139.819321 399.996307 139.824997 400.626007 C 140.059006 412.71756 146.246216 423.914337 156.358994 430.546997 C 162.763672 434.91098 169.184662 439.250336 175.621994 443.565002 C 178.606003 445.572998 181.588333 447.582001 184.569 449.59201 C 192.179001 454.727997 200.255005 456.869995 208.578995 455.968994 C 212.279007 455.569 215.203995 456.618988 218.658997 459.602997 C 230.835999 470.123993 243.306 480.677002 255.358994 490.881989 C 259.931 494.748657 264.500671 498.619659 269.067993 502.494995 C 274.539001 507.138 280.450989 509.463013 286.384003 509.463013 C 292.109985 509.463013 297.855988 507.298004 303.242004 502.963013 C 304.528015 501.928009 307.080994 500.178986 309.552002 498.489014 C 314.071991 495.394989 318.752014 492.195007 321.580994 489.464996 C 325.108002 486.065002 328.649994 479.824005 327.023987 473.412994 C 325.26001 466.463989 317.830994 461.970001 311.959015 461.790009 C 304.959015 461.576996 299.076996 458.28299 292.540009 453.337006 C 294.040649 447.720032 293.194977 441.734406 290.196991 436.752991 C 286.397003 430.519989 279.45401 426.200989 269.04599 423.622009 C 269.5 422.65799 269.96701 421.681 270.446014 420.683014 C 271.196991 419.110992 271.946014 417.537994 272.677002 415.958008 C 276.559998 407.546997 275.016998 398.923004 268.553986 392.890015 C 261.753998 386.540009 252.796005 385.634003 244.591003 390.468994 L 242.511993 391.695007 C 238.792007 393.894989 235.279007 395.96701 231.679001 397.908997 C 228.996002 399.354004 226.326004 399.199005 224.354996 397.472992 C 222.246811 395.735291 221.564529 392.800446 222.690002 390.311005 C 224.531998 385.368011 226.705994 379.640991 229.199997 374.233002 C 232.654999 366.739014 237.856995 362.778992 245.569 361.769012 C 254.281006 360.627014 263.359009 359.951996 272.138 359.299011 L 273.562988 359.192993 C 279.227997 358.769989 279.229004 358.770996 281.777008 364.058014 C 285.690002 372.167999 292.854004 376.60199 301.449005 376.272003 C 310.272522 375.849152 317.890015 369.954224 320.513 361.519012 C 321.573456 358.160309 322.558044 354.778107 323.466003 351.375 C 326.531006 339.843994 333.024994 331.575012 343.319 326.098999 C 354.557343 320.154175 363.636627 310.819122 369.266998 299.420013 C 372.783997 292.468994 378.161011 286.813995 385.703003 282.130005 C 402.509003 271.696014 422.743011 259.967987 445.382996 252.098999 C 448.710999 250.942993 459.390015 245.78302 457.098999 227.963013 C 456.787354 225.794861 458.187195 223.748962 460.321014 223.253998 L 460.585999 223.195007 C 462.27771 222.819397 464.026215 223.523132 464.985992 224.966003 C 476.127014 241.781982 489.304993 237.656006 493.078003 235.992981 C 498.005402 233.836853 502.295959 230.450562 505.537994 226.158997 C 510.400726 219.639893 512.656799 211.541321 511.86499 203.447021 Z"/>
    </g>
    <path id="Trac-copie" fill="#000000" stroke="none" d="M 296.647003 95.580017 C 296.647003 101.102844 292.169861 105.579987 286.647003 105.579987 C 281.124146 105.579987 276.647003 101.102844 276.647003 95.580017 C 276.647003 90.057159 281.124146 85.580017 286.647003 85.580017 C 292.169861 85.580017 296.647003 90.057159 296.647003 95.580017 Z"/>
</svg>
